resources/haticons/SVG/leave_bags_at_home.svg

<!-- Generated by IcoMoon.io -->
<svg version="1.1" xmlns="http://www.w3.org/2000/svg" width="24" height="24" viewBox="0 0 24 24">
<title>leave_bags_at_home</title>
<path d="M11.813 9h0.938v0.938l1.734 1.734v-2.672h1.5v4.172l3 3v-8.156q0-0.844-0.586-1.43t-1.383-0.586h-2.016v-3q0-0.422-0.305-0.703t-0.68-0.281h-4.031q-0.375 0-0.68 0.281t-0.305 0.703v3h-0.188zM11.016 3.984h1.969v2.016h-1.969v-2.016zM21.188 21.188l-18.375-18.375-1.406 1.406 3.609 3.609v11.156q0 0.844 0.586 1.43t1.383 0.586q0 0.422 0.305 0.703t0.727 0.281q0.375 0 0.68-0.281t0.305-0.703h6q0 0.422 0.305 0.703t0.68 0.281q0.422 0 0.727-0.281t0.305-0.703q0.469 0 0.938-0.234l1.828 1.828zM8.016 18v-7.172l1.5 1.5v5.672h-1.5zM11.25 18v-3.938l1.5 1.5v2.438h-1.5zM14.484 18v-0.656l0.703 0.656h-0.703z"></path>
</svg>

<svg xmlns="http://www.w3.org/2000/svg" width="24" height="24"><path d="M11.813 9h.938v.938l1.734 1.734V9h1.5v4.172l3 3V8.016q0-.844-.586-1.43T17.016 6H15V3q0-.422-.305-.703t-.68-.281H9.984q-.375 0-.68.281T8.999 3v3h-.188zm-.797-5.016h1.969V6h-1.969V3.984zm10.172 17.204L2.813 2.813 1.407 4.219l3.609 3.609v11.156q0 .844.586 1.43T6.985 21q0 .422.305.703t.727.281q.375 0 .68-.281T9.002 21h6q0 .422.305.703t.68.281q.422 0 .727-.281t.305-.703q.469 0 .938-.234l1.828 1.828zM8.016 18v-7.172l1.5 1.5V18h-1.5zm3.234 0v-3.938l1.5 1.5V18h-1.5zm3.234 0v-.656l.703.656h-.703z"/></svg>
